X:207
T:Oh Nelly, Nelly
R:slide
M:12/8
L:1/8
K:Dmaj
|: e |f3 f2 g e2 d cBA | f2 e f2 g e2 c d2 e |
f3- f2 g e2 d c2 B | A2 c e2 f gfe d2 :|
|: A |e2 d cBA e2 d c2 A | A2 c e2 f g2 e d3 |
e2 d c2 A e2 d c3 | ABc e2 f g2 c d2 :|

